src/assets/images/Taieri.svg

<svg width="493" height="235" viewBox="0 0 493 235" fill="none" xmlns="http://www.w3.org/2000/svg">
<path d="M-14 104.188C-14 114.198 -5.95524 122.312 3.96875 122.312C13.8927 122.312 21.9375 114.198 21.9375 104.188" stroke="#FFC700" stroke-width="13" stroke-linecap="round" stroke-linejoin="round"/>
<path d="M76.2468 174.643C82.9174 199.585 68.4869 225.129 44.0167 231.699C19.5465 238.266 -5.70116 223.372 -12.3718 198.43C-19.0424 173.488 -4.61193 147.945 19.8583 141.375" stroke="#6ED47C" stroke-width="13" stroke-linecap="round" stroke-linejoin="round"/>
<path d="M29.1287 63.875C29.1287 74.4028 20.7313 82.9375 10.375 82.9375C0.0185916 82.9375 -8.375 74.4028 -8.375 63.875C-8.375 53.3472 0.0185916 44.8125 10.375 44.8125H73.1875" stroke="#6ED47C" stroke-width="13" stroke-linecap="round" stroke-linejoin="round"/>
<path d="M234.496 242.062C234.496 231.535 242.894 223 253.25 223C263.606 223 272 231.535 272 242.062C272 252.59 263.606 261.125 253.25 261.125H190.438" stroke="#6ED47C" stroke-width="13" stroke-linecap="round" stroke-linejoin="round"/>
<path d="M200.088 215.125C200.088 205.115 192.037 197 182.106 197C172.175 197 164.125 205.115 164.125 215.125C164.125 225.135 172.175 233.25 182.106 233.25H210.688" stroke="#FFC700" stroke-width="13" stroke-linecap="round" stroke-linejoin="round"/>
<path d="M17.674 19.1875C0.178519 19.1875 -14 4.77653 -14 -13C-14 -30.7765 0.178519 -45.1875 17.674 -45.1875H100.688" stroke="white" stroke-width="13" stroke-linecap="round" stroke-linejoin="round"/>
<path d="M33.0312 169.138C23.1073 169.138 15.0625 177.125 15.0625 186.975C15.0625 196.825 23.1073 204.812 33.0312 204.812C42.9552 204.812 51 196.825 51 186.975V70.75" stroke="#F64E60" stroke-width="13" stroke-linecap="round" stroke-linejoin="round"/>
<path d="M167.562 180.75C167.562 162.456 152.923 147.625 134.864 147.625H77.2501" stroke="#6ED47C" stroke-width="13" stroke-linecap="round" stroke-linejoin="round"/>
<path d="M73.1875 71.375V88.1735C73.1875 105.129 86.938 118.875 103.902 118.875H127.875" stroke="white" stroke-width="13" stroke-linecap="round" stroke-linejoin="round"/>
<path d="M15.0625 -12.375H41.3146C60.2992 -12.375 75.6875 3.1552 75.6875 22.3125" stroke="#FFC700" stroke-width="13" stroke-linecap="round" stroke-linejoin="round"/>
<path d="M193.969 155.125C193.969 156.106 193.969 168.449 193.969 174.5" stroke="#FFC700" stroke-width="13" stroke-linecap="round" stroke-linejoin="round"/>
<path d="M94.1874 -24.5625C94.1874 -28.1524 97.0976 -31.0625 100.687 -31.0625C104.277 -31.0625 107.187 -28.1524 107.187 -24.5625H94.1874ZM136.444 85.2204C140.034 85.2204 142.944 88.1305 142.944 91.7204C142.944 95.3102 140.034 98.2204 136.444 98.2204V85.2204ZM187.875 126.75C191.465 126.75 194.375 129.66 194.375 133.25C194.375 136.84 191.465 139.75 187.875 139.75V126.75ZM141.7 101.981C141.7 98.3909 144.61 95.4808 148.2 95.4808C151.79 95.4808 154.7 98.3909 154.7 101.981H141.7ZM107.187 -24.5625V19.9158H94.1874V-24.5625H107.187ZM107.187 19.9158C107.187 23.2742 109.944 26.0832 113.458 26.0832V39.0832C102.865 39.0832 94.1874 30.5543 94.1874 19.9158H107.187ZM113.458 26.0832C124.053 26.0832 132.728 34.6196 132.728 45.2554H119.728C119.728 41.8935 116.968 39.0832 113.458 39.0832V26.0832ZM132.728 45.2554V47.8838H119.728V45.2554H132.728ZM132.728 47.8838C132.728 58.5191 124.053 67.056 113.458 67.056V54.056C116.968 54.056 119.728 51.2454 119.728 47.8838H132.728ZM113.458 67.056C109.947 67.056 107.187 69.8664 107.187 73.2283H94.1874C94.1874 62.5925 102.862 54.056 113.458 54.056V67.056ZM107.187 73.2283V76.1382H94.1874V73.2283H107.187ZM107.187 76.1382C107.187 81.1071 111.26 85.2204 116.39 85.2204V98.2204C104.175 98.2204 94.1874 88.381 94.1874 76.1382H107.187ZM116.39 85.2204H124.525V98.2204H116.39V85.2204ZM124.525 85.2204H136.444V98.2204H124.525V85.2204ZM187.875 139.75H179.507V126.75H187.875V139.75ZM179.507 139.75C158.634 139.75 141.7 122.848 141.7 101.981H154.7C154.7 115.653 165.799 126.75 179.507 126.75V139.75Z" fill="#F64E60"/>
<path fill-rule="evenodd" clip-rule="evenodd" d="M145.688 193.865C145.688 181.273 135.474 171.062 122.875 171.062V171.062C110.277 171.062 100.062 181.273 100.062 193.865V210.448C100.062 223.04 110.277 233.25 122.875 233.25V233.25C135.474 233.25 145.688 223.04 145.688 210.448V193.865Z" stroke="white" stroke-width="13" stroke-linecap="round" stroke-linejoin="round"/>
</svg>

<svg width="493" height="235" fill="none" xmlns="http://www.w3.org/2000/svg"><path d="M-14 104.188c0 10.01 8.045 18.124 17.969 18.124 9.924 0 17.968-8.114 17.968-18.124" stroke="#FFC700" stroke-width="13" stroke-linecap="round" stroke-linejoin="round"/><path d="M76.247 174.643c6.67 24.942-7.76 50.486-32.23 57.056-24.47 6.567-49.718-8.327-56.389-33.269-6.67-24.942 7.76-50.485 32.23-57.055M29.129 63.875c0 10.528-8.398 19.063-18.754 19.063-10.356 0-18.75-8.535-18.75-19.063 0-10.528 8.394-19.063 18.75-19.063h62.813M234.496 242.062c0-10.527 8.398-19.062 18.754-19.062 10.356 0 18.75 8.535 18.75 19.062 0 10.528-8.394 19.063-18.75 19.063h-62.812" stroke="#6ED47C" stroke-width="13" stroke-linecap="round" stroke-linejoin="round"/><path d="M200.088 215.125c0-10.01-8.051-18.125-17.982-18.125s-17.981 8.115-17.981 18.125 8.05 18.125 17.981 18.125h28.582" stroke="#FFC700" stroke-width="13" stroke-linecap="round" stroke-linejoin="round"/><path d="M17.674 19.188C.179 19.188-14 4.777-14-13-14-30.776.179-45.188 17.674-45.188h83.014" stroke="#fff" stroke-width="13" stroke-linecap="round" stroke-linejoin="round"/><path d="M33.031 169.138c-9.924 0-17.968 7.987-17.968 17.837s8.044 17.837 17.968 17.837S51 196.825 51 186.975V70.75" stroke="#F64E60" stroke-width="13" stroke-linecap="round" stroke-linejoin="round"/><path d="M167.562 180.75c0-18.294-14.639-33.125-32.698-33.125H77.25" stroke="#6ED47C" stroke-width="13" stroke-linecap="round" stroke-linejoin="round"/><path d="M73.188 71.375v16.799c0 16.955 13.75 30.701 30.714 30.701h23.973" stroke="#fff" stroke-width="13" stroke-linecap="round" stroke-linejoin="round"/><path d="M15.063-12.375h26.252c18.984 0 34.373 15.53 34.373 34.688M193.969 155.125V174.5" stroke="#FFC700" stroke-width="13" stroke-linecap="round" stroke-linejoin="round"/><path d="M94.187-24.563a6.5 6.5 0 1 1 13 0h-13zM136.444 85.22a6.5 6.5 0 1 1 0 13v-13zm51.431 41.53a6.5 6.5 0 1 1 0 13v-13zM141.7 101.981a6.5 6.5 0 1 1 13 0h-13zM107.187-24.562v44.478h-13v-44.478h13zm0 44.478c0 3.358 2.757 6.167 6.271 6.167v13c-10.593 0-19.27-8.529-19.27-19.167h12.999zm6.271 6.167c10.595 0 19.27 8.537 19.27 19.172h-13c0-3.361-2.76-6.172-6.27-6.172v-13zm19.27 19.172v2.629h-13v-2.629h13zm0 2.629c0 10.635-8.675 19.172-19.27 19.172v-13c3.51 0 6.27-2.81 6.27-6.172h13zm-19.27 19.172c-3.511 0-6.271 2.81-6.271 6.172h-13c0-10.635 8.675-19.172 19.271-19.172v13zm-6.271 6.172v2.91h-13v-2.91h13zm0 2.91c0 4.97 4.073 9.082 9.203 9.082v13c-12.215 0-22.203-9.839-22.203-22.082h13zm9.203 9.082h8.135v13h-8.135v-13zm8.135 0h11.919v13h-11.919v-13zm63.35 54.53h-8.368v-13h8.368v13zm-8.368 0c-20.873 0-37.807-16.902-37.807-37.769h13c0 13.672 11.099 24.769 24.807 24.769v13z" fill="#F64E60"/><path clip-rule="evenodd" d="M145.688 193.865c0-12.592-10.214-22.803-22.813-22.803v0c-12.598 0-22.813 10.211-22.813 22.803v16.583c0 12.592 10.215 22.802 22.813 22.802v0c12.599 0 22.813-10.21 22.813-22.802v-16.583z" stroke="#fff" stroke-width="13" stroke-linecap="round" stroke-linejoin="round"/></svg>
